images/363863.svg

<?xml version="1.0" encoding="UTF-8"?>
<svg xmlns="http://www.w3.org/2000/svg" xmlns:xlink="http://www.w3.org/1999/xlink" width="300pt" height="300pt" viewBox="0 0 300 300" version="1.1">
<defs>
<g>
<symbol overflow="visible" id="glyph0-0">
<path style="stroke:none;" d="M 0.546875 1.9375 L 0.546875 -7.75 L 6.046875 -7.75 L 6.046875 1.9375 Z M 1.171875 1.328125 L 5.4375 1.328125 L 5.4375 -7.140625 L 1.171875 -7.140625 Z M 1.171875 1.328125 "/>
</symbol>
<symbol overflow="visible" id="glyph0-1">
<path style="stroke:none;" d="M 4.328125 -7.28125 C 3.546875 -7.28125 2.921875 -6.984375 2.453125 -6.390625 C 1.992188 -5.804688 1.765625 -5.007812 1.765625 -4 C 1.765625 -2.988281 1.992188 -2.1875 2.453125 -1.59375 C 2.921875 -1.007812 3.546875 -0.71875 4.328125 -0.71875 C 5.117188 -0.71875 5.742188 -1.007812 6.203125 -1.59375 C 6.660156 -2.1875 6.890625 -2.988281 6.890625 -4 C 6.890625 -5.007812 6.660156 -5.804688 6.203125 -6.390625 C 5.742188 -6.984375 5.117188 -7.28125 4.328125 -7.28125 Z M 4.328125 -8.171875 C 5.453125 -8.171875 6.351562 -7.789062 7.03125 -7.03125 C 7.707031 -6.28125 8.046875 -5.269531 8.046875 -4 C 8.046875 -2.738281 7.707031 -1.726562 7.03125 -0.96875 C 6.351562 -0.21875 5.453125 0.15625 4.328125 0.15625 C 3.203125 0.15625 2.300781 -0.21875 1.625 -0.96875 C 0.957031 -1.71875 0.625 -2.726562 0.625 -4 C 0.625 -5.269531 0.957031 -6.28125 1.625 -7.03125 C 2.300781 -7.789062 3.203125 -8.171875 4.328125 -8.171875 Z M 4.328125 -8.171875 "/>
</symbol>
<symbol overflow="visible" id="glyph0-2">
<path style="stroke:none;" d="M 1.078125 -8.015625 L 2.171875 -8.015625 L 2.171875 -4.734375 L 6.109375 -4.734375 L 6.109375 -8.015625 L 7.1875 -8.015625 L 7.1875 0 L 6.109375 0 L 6.109375 -3.8125 L 2.171875 -3.8125 L 2.171875 0 L 1.078125 0 Z M 1.078125 -8.015625 "/>
</symbol>
</g>
</defs>
<g id="surface50825">
<rect x="0" y="0" width="300" height="300" style="fill:rgb(100%,100%,100%);fill-opacity:1;stroke:none;"/>
<path style="fill:none;stroke-width:1.2;stroke-linecap:butt;stroke-linejoin:miter;stroke:rgb(0%,0%,0%);stroke-opacity:1;stroke-miterlimit:10;" d="M 158.871094 182.949219 L 146.617188 159.914062 "/>
<path style="fill:none;stroke-width:1.2;stroke-linecap:butt;stroke-linejoin:miter;stroke:rgb(100%,0%,0%);stroke-opacity:1;stroke-miterlimit:10;" d="M 184.949219 183.855469 L 171.910156 183.402344 "/>
<path style="fill:none;stroke-width:1.2;stroke-linecap:butt;stroke-linejoin:miter;stroke:rgb(0%,0%,0%);stroke-opacity:1;stroke-miterlimit:10;" d="M 171.910156 183.402344 L 158.871094 182.949219 "/>
<path style="fill:none;stroke-width:1.2;stroke-linecap:butt;stroke-linejoin:miter;stroke:rgb(0%,0%,0%);stroke-opacity:1;stroke-miterlimit:10;" d="M 146.617188 159.914062 L 160.441406 137.785156 "/>
<path style="fill:none;stroke-width:1.2;stroke-linecap:butt;stroke-linejoin:miter;stroke:rgb(0%,0%,0%);stroke-opacity:1;stroke-miterlimit:10;" d="M 121.300781 153.605469 L 146.617188 159.914062 "/>
<path style="fill:none;stroke-width:1.2;stroke-linecap:butt;stroke-linejoin:miter;stroke:rgb(0%,0%,0%);stroke-opacity:1;stroke-miterlimit:10;" d="M 160.441406 137.785156 L 186.519531 138.691406 "/>
<path style="fill:none;stroke-width:1.2;stroke-linecap:butt;stroke-linejoin:miter;stroke:rgb(0%,0%,0%);stroke-opacity:1;stroke-miterlimit:10;" d="M 160.441406 137.785156 L 152.054688 127.792969 "/>
<path style="fill:none;stroke-width:1.2;stroke-linecap:butt;stroke-linejoin:miter;stroke:rgb(100%,0%,0%);stroke-opacity:1;stroke-miterlimit:10;" d="M 152.054688 127.792969 L 143.667969 117.796875 "/>
<path style="fill:none;stroke-width:1.2;stroke-linecap:butt;stroke-linejoin:miter;stroke:rgb(0%,0%,0%);stroke-opacity:1;stroke-miterlimit:10;" d="M 186.519531 138.691406 L 198.773438 161.726562 "/>
<path style="fill:none;stroke-width:1.2;stroke-linecap:butt;stroke-linejoin:miter;stroke:rgb(0%,0%,0%);stroke-opacity:1;stroke-miterlimit:10;" d="M 193.164062 138.109375 L 202.96875 156.539062 "/>
<path style="fill:none;stroke-width:1.2;stroke-linecap:butt;stroke-linejoin:miter;stroke:rgb(0%,0%,0%);stroke-opacity:1;stroke-miterlimit:10;" d="M 200.34375 116.558594 L 186.519531 138.691406 "/>
<path style="fill:none;stroke-width:1.2;stroke-linecap:butt;stroke-linejoin:miter;stroke:rgb(0%,0%,0%);stroke-opacity:1;stroke-miterlimit:10;" d="M 198.773438 161.726562 L 191.863281 172.792969 "/>
<path style="fill:none;stroke-width:1.2;stroke-linecap:butt;stroke-linejoin:miter;stroke:rgb(100%,0%,0%);stroke-opacity:1;stroke-miterlimit:10;" d="M 191.863281 172.792969 L 184.949219 183.855469 "/>
<path style="fill:none;stroke-width:1.2;stroke-linecap:butt;stroke-linejoin:miter;stroke:rgb(0%,0%,0%);stroke-opacity:1;stroke-miterlimit:10;" d="M 198.773438 161.726562 L 224.851562 162.632812 "/>
<path style=" stroke:none;fill-rule:nonzero;fill:rgb(100%,100%,100%);fill-opacity:1;" d="M 180.949219 177.355469 L 189.949219 177.355469 L 189.949219 190.355469 L 180.949219 190.355469 Z M 180.949219 177.355469 "/>
<g style="fill:rgb(100%,0%,0%);fill-opacity:1;">
  <use xlink:href="#glyph0-1" x="180.949219" y="187.256836"/>
</g>
<path style="fill:none;stroke-width:1.2;stroke-linecap:butt;stroke-linejoin:miter;stroke:rgb(0%,0%,0%);stroke-opacity:1;stroke-miterlimit:10;" d="M 224.851562 162.632812 L 238.671875 140.5 "/>
<path style="fill:none;stroke-width:1.2;stroke-linecap:butt;stroke-linejoin:miter;stroke:rgb(0%,0%,0%);stroke-opacity:1;stroke-miterlimit:10;" d="M 221.023438 157.167969 L 232.082031 139.460938 "/>
<path style="fill:none;stroke-width:1.2;stroke-linecap:butt;stroke-linejoin:miter;stroke:rgb(0%,0%,0%);stroke-opacity:1;stroke-miterlimit:10;" d="M 238.671875 140.5 L 226.417969 117.464844 "/>
<path style="fill:none;stroke-width:1.2;stroke-linecap:butt;stroke-linejoin:miter;stroke:rgb(0%,0%,0%);stroke-opacity:1;stroke-miterlimit:10;" d="M 238.671875 140.5 L 251.710938 140.953125 "/>
<path style="fill:none;stroke-width:1.2;stroke-linecap:butt;stroke-linejoin:miter;stroke:rgb(100%,0%,0%);stroke-opacity:1;stroke-miterlimit:10;" d="M 251.710938 140.953125 L 264.75 141.40625 "/>
<path style="fill:none;stroke-width:1.2;stroke-linecap:butt;stroke-linejoin:miter;stroke:rgb(0%,0%,0%);stroke-opacity:1;stroke-miterlimit:10;" d="M 226.417969 117.464844 L 200.34375 116.558594 "/>
<path style="fill:none;stroke-width:1.2;stroke-linecap:butt;stroke-linejoin:miter;stroke:rgb(0%,0%,0%);stroke-opacity:1;stroke-miterlimit:10;" d="M 223.597656 123.511719 L 202.738281 122.785156 "/>
<path style=" stroke:none;fill-rule:nonzero;fill:rgb(100%,100%,100%);fill-opacity:1;" d="M 256.75 134.90625 L 273.75 134.90625 L 273.75 147.90625 L 256.75 147.90625 Z M 256.75 134.90625 "/>
<g style="fill:rgb(100%,0%,0%);fill-opacity:1;">
  <use xlink:href="#glyph0-1" x="256.75" y="144.807617"/>
  <use xlink:href="#glyph0-2" x="265.150391" y="144.807617"/>
</g>
<path style="fill:none;stroke-width:1.2;stroke-linecap:butt;stroke-linejoin:miter;stroke:rgb(100%,0%,0%);stroke-opacity:1;stroke-miterlimit:10;" d="M 143.667969 117.796875 L 131.570312 122.6875 "/>
<path style="fill:none;stroke-width:1.2;stroke-linecap:butt;stroke-linejoin:miter;stroke:rgb(0%,0%,0%);stroke-opacity:1;stroke-miterlimit:10;" d="M 131.570312 122.6875 L 119.476562 127.578125 "/>
<path style=" stroke:none;fill-rule:nonzero;fill:rgb(100%,100%,100%);fill-opacity:1;" d="M 139.667969 111.296875 L 148.667969 111.296875 L 148.667969 124.296875 L 139.667969 124.296875 Z M 139.667969 111.296875 "/>
<g style="fill:rgb(100%,0%,0%);fill-opacity:1;">
  <use xlink:href="#glyph0-1" x="139.667969" y="121.198242"/>
</g>
<path style="fill:none;stroke-width:1.2;stroke-linecap:butt;stroke-linejoin:miter;stroke:rgb(0%,0%,0%);stroke-opacity:1;stroke-miterlimit:10;" d="M 119.476562 127.578125 L 96.019531 116.144531 "/>
<path style="fill:none;stroke-width:1.2;stroke-linecap:butt;stroke-linejoin:miter;stroke:rgb(0%,0%,0%);stroke-opacity:1;stroke-miterlimit:10;" d="M 114.4375 131.953125 L 95.675781 122.804688 "/>
<path style="fill:none;stroke-width:1.2;stroke-linecap:butt;stroke-linejoin:miter;stroke:rgb(0%,0%,0%);stroke-opacity:1;stroke-miterlimit:10;" d="M 121.300781 153.605469 L 119.476562 127.578125 "/>
<path style="fill:none;stroke-width:1.2;stroke-linecap:butt;stroke-linejoin:miter;stroke:rgb(0%,0%,0%);stroke-opacity:1;stroke-miterlimit:10;" d="M 96.019531 116.144531 L 74.390625 130.738281 "/>
<path style="fill:none;stroke-width:1.2;stroke-linecap:butt;stroke-linejoin:miter;stroke:rgb(0%,0%,0%);stroke-opacity:1;stroke-miterlimit:10;" d="M 74.390625 130.738281 L 76.214844 156.765625 "/>
<path style="fill:none;stroke-width:1.2;stroke-linecap:butt;stroke-linejoin:miter;stroke:rgb(0%,0%,0%);stroke-opacity:1;stroke-miterlimit:10;" d="M 68.449219 133.769531 L 69.910156 154.59375 "/>
<path style="fill:none;stroke-width:1.2;stroke-linecap:butt;stroke-linejoin:miter;stroke:rgb(100%,0%,0%);stroke-opacity:1;stroke-miterlimit:10;" d="M 49.074219 124.429688 L 61.734375 127.585938 "/>
<path style="fill:none;stroke-width:1.2;stroke-linecap:butt;stroke-linejoin:miter;stroke:rgb(0%,0%,0%);stroke-opacity:1;stroke-miterlimit:10;" d="M 61.734375 127.585938 L 74.390625 130.738281 "/>
<path style="fill:none;stroke-width:1.2;stroke-linecap:butt;stroke-linejoin:miter;stroke:rgb(0%,0%,0%);stroke-opacity:1;stroke-miterlimit:10;" d="M 76.214844 156.765625 L 99.671875 168.203125 "/>
<path style="fill:none;stroke-width:1.2;stroke-linecap:butt;stroke-linejoin:miter;stroke:rgb(0%,0%,0%);stroke-opacity:1;stroke-miterlimit:10;" d="M 76.214844 156.765625 L 64.121094 161.65625 "/>
<path style="fill:none;stroke-width:1.2;stroke-linecap:butt;stroke-linejoin:miter;stroke:rgb(100%,0%,0%);stroke-opacity:1;stroke-miterlimit:10;" d="M 64.121094 161.65625 L 52.027344 166.546875 "/>
<path style="fill:none;stroke-width:1.2;stroke-linecap:butt;stroke-linejoin:miter;stroke:rgb(0%,0%,0%);stroke-opacity:1;stroke-miterlimit:10;" d="M 99.671875 168.203125 L 121.300781 153.605469 "/>
<path style="fill:none;stroke-width:1.2;stroke-linecap:butt;stroke-linejoin:miter;stroke:rgb(0%,0%,0%);stroke-opacity:1;stroke-miterlimit:10;" d="M 98.398438 161.652344 L 115.703125 149.976562 "/>
<path style="fill:none;stroke-width:1.2;stroke-linecap:butt;stroke-linejoin:miter;stroke:rgb(100%,0%,0%);stroke-opacity:1;stroke-miterlimit:10;" d="M 52.027344 166.546875 L 43.636719 156.554688 "/>
<path style="fill:none;stroke-width:1.2;stroke-linecap:butt;stroke-linejoin:miter;stroke:rgb(0%,0%,0%);stroke-opacity:1;stroke-miterlimit:10;" d="M 43.636719 156.554688 L 35.25 146.5625 "/>
<path style=" stroke:none;fill-rule:nonzero;fill:rgb(100%,100%,100%);fill-opacity:1;" d="M 48.027344 160.046875 L 57.027344 160.046875 L 57.027344 173.046875 L 48.027344 173.046875 Z M 48.027344 160.046875 "/>
<g style="fill:rgb(100%,0%,0%);fill-opacity:1;">
  <use xlink:href="#glyph0-1" x="48.027344" y="169.948242"/>
</g>
<path style="fill:none;stroke-width:1.2;stroke-linecap:butt;stroke-linejoin:miter;stroke:rgb(0%,0%,0%);stroke-opacity:1;stroke-miterlimit:10;" d="M 35.25 146.5625 L 42.160156 135.496094 "/>
<path style="fill:none;stroke-width:1.2;stroke-linecap:butt;stroke-linejoin:miter;stroke:rgb(100%,0%,0%);stroke-opacity:1;stroke-miterlimit:10;" d="M 42.160156 135.496094 L 49.074219 124.429688 "/>
<path style=" stroke:none;fill-rule:nonzero;fill:rgb(100%,100%,100%);fill-opacity:1;" d="M 45.074219 117.929688 L 54.074219 117.929688 L 54.074219 130.929688 L 45.074219 130.929688 Z M 45.074219 117.929688 "/>
<g style="fill:rgb(100%,0%,0%);fill-opacity:1;">
  <use xlink:href="#glyph0-1" x="45.074219" y="127.831055"/>
</g>
</g>
</svg>

<svg xmlns="http://www.w3.org/2000/svg" xmlns:xlink="http://www.w3.org/1999/xlink" width="300pt" height="300pt" viewBox="0 0 300 300"><defs><symbol overflow="visible"><path d="M.547 1.938V-7.75h5.5v9.688zm.625-.61h4.266v-8.47H1.171zm0 0"/></symbol><symbol overflow="visible" id="a"><path d="M4.328-7.28c-.78 0-1.406.296-1.875.89-.46.585-.687 1.382-.687 2.39 0 1.012.226 1.813.687 2.406.47.586 1.094.875 1.875.875.79 0 1.414-.288 1.875-.874.457-.593.688-1.394.688-2.406 0-1.008-.23-1.805-.687-2.39-.46-.594-1.086-.89-1.875-.89zm0-.892c1.125 0 2.024.383 2.703 1.14C7.708-6.28 8.048-5.27 8.048-4c0 1.262-.34 2.273-1.016 3.03C6.353-.22 5.454.157 4.33.157S2.3-.22 1.625-.97c-.668-.75-1-1.757-1-3.03 0-1.27.332-2.28 1-3.03.676-.76 1.578-1.142 2.703-1.142zm0 0"/></symbol><symbol overflow="visible" id="b"><path d="M1.078-8.016h1.094v3.282H6.11v-3.282h1.077V0H6.11v-3.813H2.17V0H1.078zm0 0"/></symbol></defs><g><path fill="#fff" d="M0 0h300v300H0z"/><path d="M158.87 182.95l-12.253-23.036" stroke-width="1.2" stroke="#000" stroke-miterlimit="10" fill="none"/><path d="M184.95 183.855l-13.04-.453" stroke-width="1.2" stroke="#f00" stroke-miterlimit="10" fill="none"/><path d="M171.91 183.402l-13.04-.453M146.617 159.914l13.824-22.13M121.3 153.605l25.317 6.31M160.44 137.785l26.08.906M160.44 137.785l-8.385-9.992" stroke-width="1.2" stroke="#000" stroke-miterlimit="10" fill="none"/><path d="M152.055 127.793l-8.387-9.996" stroke-width="1.2" stroke="#f00" stroke-miterlimit="10" fill="none"/><path d="M186.52 138.69l12.253 23.037M193.164 138.11l9.805 18.43M200.344 116.56l-13.824 22.13M198.773 161.727l-6.91 11.066" stroke-width="1.2" stroke="#000" stroke-miterlimit="10" fill="none"/><path d="M191.863 172.793l-6.914 11.062" stroke-width="1.2" stroke="#f00" stroke-miterlimit="10" fill="none"/><path d="M198.773 161.727l26.08.906" stroke-width="1.2" stroke="#000" stroke-miterlimit="10" fill="none"/><path d="M180.95 177.355h9v13h-9zm0 0" fill="#fff"/><use xlink:href="#a" x="180.949" y="187.257" fill="#f00"/><path d="M224.852 162.633l13.82-22.133M221.023 157.168l11.06-17.707M238.672 140.5l-12.254-23.035M238.672 140.5l13.04.453" stroke-width="1.2" stroke="#000" stroke-miterlimit="10" fill="none"/><path d="M251.71 140.953l13.04.453" stroke-width="1.2" stroke="#f00" stroke-miterlimit="10" fill="none"/><path d="M226.418 117.465l-26.074-.906M223.598 123.512l-20.86-.727" stroke-width="1.2" stroke="#000" stroke-miterlimit="10" fill="none"/><path d="M256.75 134.906h17v13h-17zm0 0" fill="#fff"/><g fill="#f00"><use xlink:href="#a" x="256.75" y="144.808"/><use xlink:href="#b" x="265.15" y="144.808"/></g><path d="M143.668 117.797l-12.098 4.89" stroke-width="1.2" stroke="#f00" stroke-miterlimit="10" fill="none"/><path d="M131.57 122.688l-12.093 4.89" stroke-width="1.2" stroke="#000" stroke-miterlimit="10" fill="none"/><path d="M139.668 111.297h9v13h-9zm0 0" fill="#fff"/><use xlink:href="#a" x="139.668" y="121.198" fill="#f00"/><path d="M119.477 127.578L96.02 116.145M114.438 131.953l-18.762-9.148M121.3 153.605l-1.823-26.027M96.02 116.145l-21.63 14.593M74.39 130.738l1.825 26.028M68.45 133.77l1.46 20.824" stroke-width="1.2" stroke="#000" stroke-miterlimit="10" fill="none"/><path d="M49.074 124.43l12.66 3.156" stroke-width="1.2" stroke="#f00" stroke-miterlimit="10" fill="none"/><path d="M61.734 127.586l12.657 3.152M76.215 156.766l23.457 11.437M76.215 156.766l-12.094 4.89" stroke-width="1.2" stroke="#000" stroke-miterlimit="10" fill="none"/><path d="M64.12 161.656l-12.093 4.89" stroke-width="1.2" stroke="#f00" stroke-miterlimit="10" fill="none"/><path d="M99.672 168.203l21.63-14.598M98.398 161.652l17.305-11.675" stroke-width="1.2" stroke="#000" stroke-miterlimit="10" fill="none"/><path d="M52.027 166.547l-8.39-9.992" stroke-width="1.2" stroke="#f00" stroke-miterlimit="10" fill="none"/><path d="M43.637 156.555l-8.387-9.993" stroke-width="1.2" stroke="#000" stroke-miterlimit="10" fill="none"/><path d="M48.027 160.047h9v13h-9zm0 0" fill="#fff"/><use xlink:href="#a" x="48.027" y="169.948" fill="#f00"/><path d="M35.25 146.563l6.91-11.067" stroke-width="1.2" stroke="#000" stroke-miterlimit="10" fill="none"/><path d="M42.16 135.496l6.914-11.066" stroke-width="1.2" stroke="#f00" stroke-miterlimit="10" fill="none"/><path d="M45.074 117.93h9v13h-9zm0 0" fill="#fff"/><use xlink:href="#a" x="45.074" y="127.831" fill="#f00"/></g></svg>
